X:1
T:Title
%%score { ( 1 3 5 ) | ( 2 4 6 ) }
L:1/8
Q:1/4=100
M:4/4
K:Db
V:1 treble nm="Grand Piano"
V:3 treble 
V:5 treble 
V:2 bass 
V:4 bass 
V:6 bass 
V:1
 F_F=FG F2 A2 | z4 G4[K:bass] | GFGA G2 [CGB]2 | [EGc]2 [CGB]2 [DFA]4 | %4
w: Harper~G.~Smyth * * * * *||||
 [Fd][Fd][Fd][Fc] [Fe]2 [Ad]2 | [Ac]2 B2 B4 | ABAG F2 G2 | z4 c4 | d2 d2 .d2 .B2 | %9
w: |||||
 [Gc]2[K:bass][K:treble] z2 z4 | .G2 .B2 z4 | [DFB]2 [DFB]2 F4 | %12
w: |||
 [Fd] [Fd]2 [Fc] [Fe][Fd][FA][F=A] | [Ac]2 B2 z2 A2 | .[Ge]2 .[GB]2 .[Ge]2 .[GB]2 | e8 | %16
w: ||||
 d2 d2 .d2 .B2 | [Gc]2[K:bass][K:treble] z2 z4 | .G2 .B2 z4 | [DFB]2 [DFB]2 F4 | %20
w: ||||
 [Fd] [Fd]2 [Fc] [Fe][Fd][FA][F=A] | [Ac]2 B2 B4 | ABcd e2 A2 | d8 |] %24
w: ||||
V:2
 [D,A,D][D,=G,D][D,A,D][D,B,D] [D,A,D]2 [D,F,D]2 | [E,A,C]2 [=D,A,_C]2 [A,=C]4 | %2
 [E,A,C][=D,A,C][E,A,C][E,A,C] [E,A,C]2 E,2 | A,,2 A,,2 D,2 A,,2 | %4
 [D,A,][D,A,][D,A,][D,A,] [D,A,]2 [F,D]2 | [G,D]2 [G,DG]2 [G,DG]4 | %6
 [F,D][G,DG][F,D][E,A,C] [D,A,D]2 [E,A,C]2 | [F,A,D]2 [_F,=G,D]2 [E,_G,C]2 [A,,A,]2 | A,2 A,2 z4 | %9
 z2 A,2 z4 | E,F,G,F, z[K:treble] B[K:bass] z G | F,D,F,A, D4 | %12
 [D,A,] [D,A,]2 [D,A,] [D,A,][D,A,][D,D][D,D] | [G,D]2 [G,DG]2 [G,DG]2 [F,=D]2 | %14
 .[E,B,]2 .[E,E]2 .[E,B,]2 .[E,C]2 | z4 C4 | A,-[E,A,]A,-[E,A,] [D,A,]2 [A,,A,]2 | z2 A,2 z4 | %18
 E,F,G,F, z[K:treble] B[K:bass] z C | F,D,F,A, D4 | [D,A,] [D,A,]2 [D,A,] [D,A,][D,A,][D,D][D,D] | %21
 [G,D]2[K:treble] [G,DG]2 [G,DG]4 | [A,DF][A,DF][A,DF][A,DF] [A,CG]2 [A,CG]2 | z2 B,2 A,4 |] %24
V:3
 x8 | G2 F2 z2[K:bass] A,,2 | x8 | x8 | x8 | x8 | x8 | A2 B2 z2 G2 | FGAG F-[Fc]F-[FA] | %9
 z[K:bass] A,,[K:treble] [Gc]2 [CEG]4 | [Ec]-[EAc][Ec]-[EAc] .[Gc]2 .[CGA]2 | x8 | x8 | z4 B4 | %14
 x8 | z dcB .A2 FE | FGAG F-[Fc]F-[FA] | z[K:bass] A,,[K:treble] [Gc]2 [CEG]4 | %18
 [Ec]-[EAc][Ec]-[EAc] .[Gc]2 [CGA]G | x8 | x8 | x8 | x8 | [DF]2 G2 F4 |] %24
V:4
 x8 | z4 E,2 z2 | x8 | x8 | x8 | x8 | x8 | x8 | D,E,F,E, [D,A,]2 [A,,A,]2 | .[E,A,]2 C,E, A,4 | %10
 z4 [E,A,]2[K:treble][K:bass] A,,2 | x8 | x8 | x8 | x8 | [CG-]4 GB,A,G, | .D,2 .F,2 z4 | %17
 .[E,A,]2 C,E, A,4 | z4 [E,A,]2[K:treble][K:bass] A,,2 | x8 | x8 | x2[K:treble] x6 | x8 | D,8 |] %24
V:5
 x8 | x6[K:bass] x2 | x8 | x8 | x8 | x8 | x8 | x8 | x8 | x[K:bass] x[K:treble] x6 | x8 | x8 | x8 | %13
 x8 | x8 | z4 z G3 | x8 | x[K:bass] x[K:treble] x6 | x8 | x8 | x8 | x8 | x8 | x8 |] %24
V:6
 x8 | x8 | x8 | x8 | x8 | x8 | x8 | x8 | x8 | x8 | x5[K:treble] x[K:bass] x2 | x8 | x8 | x8 | x8 | %15
 A,,8 | x8 | x8 | x5[K:treble] x[K:bass] x2 | x8 | x8 | x2[K:treble] x6 | x8 | x8 |] %24

